X: 1729
T: Seni Sevda Çiçeğim
C: Leylâ Saz
O: Turkey
F: http://compmusic.upf.edu/node/140
N: hicaz--sarki--agiraksak--seni_sevda_cicegim--ibrahim_uygun
N: makam= hicaz
N: form= sarki
N: usul= agiraksak = 9/4
M: 9/4
L: 1/16
K: C _7/8B ^f ^c 
Q: 1/4=66
%%MIDI tuningsystem comma53
A8 z4 c2d2 eddc d4 e2{g}=fe d2c2 d2e2  | \
w:  *  Se ni  sev *  *  *  *  da   | 
=f2ed c2BA A4 c2d2 d2cB c2BA A8 G2AB  | 
w:  *  *  *  *  *  *  *  çi çe ğim  *  *  *  *  *  tâc_  | 
c2d2 c2B2 A2G2 c2d2 d8 f2ef {a}g2fe d2c=B  | \
w:  *  *  *  *  *  *  ı  se rim  tâc_  | 
A2=Bc d2e2 f2ed g{a}gfe d8 A2c2 _1/4B2d2 cBBA  | 
w:  *  *  *  *  *  *  *  *  ı  *  *  se *  rim   SAZ  | 
A8 z4 c2d2 eddc d4 e2{g}=fe d2c2 d2e2  | \
w:  *  Se ni  sev *  *  *  *  da   | 
=f2ed c2BA A4 c2d2 d2cB c2BA A8 G2AB  | 
w:  *  *  *  *  *  *  *  çi çe ğim  *  *  *  *  *  tâc_  | 
c2d2 c2B2 A2G2 c2d2 d8 f2ef {a}g2fe d2c=B  | \
w:  *  *  *  *  *  *  ı  se rim  tâc_  | 
A2=Bc d2e2 f2ed g{a}gfe d8 d2f2 e2a2 gfed  | 
w:  *  *  *  *  *  *  *  *  ı  *  *  se *  rim   SAZ  | 
e8 a2gb g2fe e8 d2f2 e2g2 f2a2  | \
w:  *  Bi *  *  le *  *  mez sin   | 
a2g=f e2d2 e2^f2 g2f2 g=fef efed edcd c2(3BA^A d4  | 
w:  *  *  *  *  *  ne  *  ka *  dar  *  *  *  *  *  *  *  çok   | 
g2=fe d2cB A4 G2A2 A8 e2de f2ed c2BA  | \
w:  *  *  *  *  *  *  *  se ve rim  çok   | 
A2e2 d2c2 B2{c}BA A2A2 A8 d2f2 e2a2 gfed  | 
w:  *  *  *  *  *  *  *  *  se ve rim   SAZ  | 
e8 a2gb g2fe e8 d2f2 e2g2 f2a2  | \
w:  *  Bi *  *  le *  *  mez sin   | 
a2g=f e2d2 e2^f2 g2f2 g=fef efed edcd c2(3BA^A d4  | 
w:  *  *  *  *  *  ne  *  ka *  dar  *  *  *  *  *  *  *  çok   | 
g2=fe d2cB A4 G2A2 A8 e2de f2ed c2BA  | \
w:  *  *  *  *  *  *  *  se ve rim  çok   | 
A2e2 d2c2 B2{c}BA A2A2 A8 aga=b a2g2 f2g2  | 
w:  *  *  *  *  *  *  *  *  se ve rim   SAZ  | 
a8 z4 g2a2 a8 a2g2 =f2e2 d2=c2  | \
w:  *  Bu nu  her  gün   | 
d2a2 g=fed =c2(3_1/4BAB c2d2 d2{f}ed c2BA A8 G4  | 
w:  *  *  *  *  *  *  *  *  *  *  so ra rım  *  *  *  *  *  *  ta  | 
g2=fe d2cB A2G2 c2d2 d8 ^f2ef g2fe d2c=B  | \
w:  *  *  *  *  *  *  *  *  ze le rim  ta  | 
A2=Bc d2e2 f2ed g{a}gfe d8 d2f2 e2a2 g=fed  | 
w:  *  *  *  *  *  *  *  *  ze *  *  le *  rim    | 
e8 a2gb g2fe e8 d2f2 e2g2 f2a2  | \
w:  *  Bi *  *  le *  *  mez sin   | 
a2g=f e2d2 e2^f2 g2f2 g=fef efed edcd c2(3BA^A d4  | 
w:  *  *  *  *  *  ne  *  ka *  dar  *  *  *  *  *  *  *  çok   | 
g2=fe d2cB A4 G2A2 A8 e2de f2ed c2BA  | \
w:  *  *  *  *  *  *  *  se ve rim  çok   | 
A2e2 d2c2 B2{c}BA A2A2 A8 d2f2 e2a2 gfed  | 
w:  *  *  *  *  *  *  *  *  se ve rim   SAZ  | 
e8 a2gb g2fe e8 d2f2 e2g2 f2a2  | \
w:  *  Bi *  *  le *  *  mez sin   | 
a2g=f e2d2 e2^f2 g2f2 g=fef efed edcd c2(3BA^A d4  | 
w:  *  *  *  *  *  ne  *  ka *  dar  *  *  *  *  *  *  *  çok   | 
g2=fe d2cB A4 G2A2 A8 e2de f2ed c2BA  | \
w:  *  *  *  *  *  *  *  se ve rim  çok   | 
A2e2 d2c2 B2{c}BA A2A2 A8 z12  | 
w:  KARAR  | 
|


